X:1
T:Title
%%score { ( 1 3 ) | ( 2 4 ) }
L:1/8
Q:1/4=96
M:4/4
K:Bb
V:1 treble nm="Grand Piano"
V:3 treble 
V:2 bass 
V:4 bass 
V:1
 [DF]2 [B,D][CE] [DF]2 [DF][DF] | [EG][GB][GB][Gc] [Fd]2 [DB]2 | [GB]2 [EG]2 [EG] .[DF]3 | %3
w: E.~S.~Lorenz * * * * *|||
 [Fd]2 [FB]2 [Fd] .[Fc]3 | [DF]2 [B,D][CE] [DF]2 [DF][DF] | [EG][GB][GB][Gc] [Fd]2 [DB]2 | %6
w: |||
 [Fd]2 [Fc]2 [FA] .[Fc]3 |[M:7/8] [=EA]2 [EG]2 G F2 |[M:1/8] F | %9
w: |||
[M:4/4] z G[CFA][CGB] c-[A,Fc][B,FB]c | d4 B2 z2 | [GB]2 [GB][GB] [FA]2 [EG]2 | %12
w: |||
 [EG]2 [DF][_D=E] [=DF]2 z F | z G[CFA][CGB] c-[A,Fc][B,FB][Fc] | d2- [^Fd]2 d2 z2 | %15
w: |||
 [Ge]2 [Ge][Ge] [Fd]2 z c | B2 A2 [DB]4 |] %17
w: ||
V:2
 [B,,B,]2 [B,,F,][B,,F,] [B,,B,]2 [B,,B,][B,,B,] | [E,B,]2 [E,B,][E,B,] [B,,B,]2 [B,,B,]2 | %2
 [E,B,]2 [E,B,]2 [B,,B,] .[B,,B,]3 | [B,,B,]2 [D,B,]2 [F,B,] .[F,A,]3 | %4
 [B,,B,]2 [B,,F,][B,,F,] [B,,B,]2 [B,,B,][B,,B,] | [E,B,]2 [E,B,][E,B,] [B,,B,]2 [B,,F,]2 | %6
 [C,A,]2 [C,A,]2 [C,C] .[C,A,]3 |[M:7/8] [C,C]2 [C,B,]2 [F,B,C] [F,A,C]2 |[M:1/8] [F,A,] | %9
[M:4/4] A,B,F,F, F,E,D,[K:treble][F,A,F] | [B,F]4 [B,D]2 z2 | %11
 [E,B,]2 [E,B,][E,B,] [E,B,]2 [E,B,]2 | [B,,B,]2 [B,,B,][B,,B,] [B,,B,]2 z [F,A,] | %13
 A,B,F,F, F,E,D,[C,A,] | [B,,B,]2 [D,A,]2[K:treble] [G,B,G]2 z2 | %15
 [E,B,]2 [E,B,][E,B,] [B,,B,]2 z [E,G,E] | [F,D]2 [F,CE]2 [B,,B,]4 |] %17
V:3
 x8 | x8 | x8 | x8 | x8 | x8 | x8 |[M:7/8] x7 |[M:1/8] x |[M:4/4] F2 z2 .[CA]2 z2 | x8 | x8 | x8 | %13
 F2 z2 .[CA]2 z2 | F2 z2 z4 | x8 | x8 |] %17
V:4
 x8 | x8 | x8 | x8 | x8 | x8 | x8 |[M:7/8] x7 |[M:1/8] x |[M:4/4] F,2 z2 z4[K:treble] | x8 | x8 | %12
 x8 | F,2 z2 z4 | x4[K:treble] x4 | x8 | x8 |] %17

